X:161
T:Coleraine
M:6/8
L:1/8
K:Am
E|"Am" A2 A (ABc)|"Em" (Be)e (e2 d)|"Am"{d-}(cBA) (ABc)|"Em"(BE)E E2 E|
"Am" A2 A (ABc)|"Em" (B2e) e2 d|"Am" (cBA) "E7"(BA^G)|"Am" A2 A A2:||
||:B|"C"[E2c2] [Ec] (cdc)|"G"(d2 g)[B2g2] ^g2|"Am" (aed) (cBA)|"E7"^G2 e e2 e|
"Am"(A^GA) "E7" (BAB)|"Am" (cde) "Dm" ([A2f2] f)|"Am" (edc) "E7" (BA^G)|"Am" A2 A A2:||
